icons/file-empty-filled.svg

<svg xmlns="http://www.w3.org/2000/svg" width="24" height="24" viewBox="0 0 24 24">
    <path fill="#3A3A47" fill-rule="evenodd" d="M11.999 2L12 7.998c0 1.358.667 2.025 2 2 1.196-.023 3.195-.025 5.999-.007L20 20c0 1.333-.667 2-2 2H6.002C4.667 22 4 21.334 4 20V4c0-1.333.667-2 2-2h5.999zM14 2.184c.293.146.625.417.996.813l4.007 4.006c.427.38.7.712.819.997l-.002-.003H14z"/>
</svg>

<svg width="24" height="24" viewBox="0 0 24 24" fill="none" xmlns="http://www.w3.org/2000/svg">
<path d="M19.82 7.998H14V2.184C14.293 2.33 14.625 2.601 14.996 2.997L19.003 7.003C19.429 7.383 19.702 7.713 19.821 7.998H19.82ZM20 9.99V20C20 21.333 19.333 22 18 22H6.002C4.667 22 4 21.334 4 20V4C4 2.667 4.667 2 6 2H12V7.998C12 9.356 12.667 10.023 14 9.998C15.196 9.975 17.196 9.973 20 9.991V9.99Z" fill="#3A3A47"/>
</svg>
